X:1
T:#
%%score { 1 | 2 } 3 4 5
L:1/8
Q:1/4=80
M:4/4
K:Bb
V:1 treble nm="Soprano I" snm="S"
V:2 treble 
V:3 treble nm="Alto" snm="A"
V:4 treble-8 nm="Tenor" snm="T"
V:5 bass nm="Bass" snm="B"
V:1
"^Ne reminiscaris Domine""^Peter Philips\n(1561-1628)" d4 d2 d2- | d2 d2 e4 | d4 c4- | c2 c2 =B4 | %4
w: Ne re- mi\-|* ni- sca-|ris Do\-|* mi- ne|
 z2 d2 f4- | f4 e2 e2- |[M:4/4] (edcB c4) | A4 z2 cc | c2 AF f4- | f4 d4 | B4 B2 B2 | BF (f4 =e2) | %12
w: de- li\-|* cta no\-||stra, vel pa-|ren- tum no- stro\-|* rum:|ne- que vin-|di- cam su\- *|
 f4 z4 | z4 z2 AB | c2 A2 G4 | F2 Bc d2 B2 | (BA G4 ^F2) | !fermata!G8 ||[M:3/4] e4 d2 | c4 c2 | %20
w: mas|de pec-|ca- tis no-|stris, de pec- ca- tis|no\- * * *|stris.|Par- ce|Do- mi-|
 =B6 | z6 |[M:3/4] z6 | z6 | d4 d2 | z4 z2 | g4 d2 | z6 | g4 f2 | e3 d c2 | =B6 | c6 | z6 | c4 c2 | %34
w: ne,||||par- ce,||par- ce||par- ce,|po- pu- lo|tu-|o,||par- ce,|
 z6 | f4 c2 | z6 | =B3 B c2 ||[M:4/4] A4 =Bdef | e2 d=B cd c2 |[M:4/4] (BAGF E2) z2 | z4 z2 f2- | %42
w: |par- ce,||po- pu- lo|tu- o, quem re- de-|mi- sti, quem re- de- mi-|sti * * * *|prae\-|
 ff e2 d2 c2 | B2 e3 d c2 | (de f3 e d2 | c4 d4 | z8 | f4 ffee | d4 d2 d2- | d2 c2 =B2 c2- | %50
w: * ti- o- sis- si-|mo san- gui- ne|tu\- * * * *|* o,||ne i- ra- sca- ris|no- bis, in|* ae- ter\- *|
 c2 =B2) c4 | z2 G4 _A2 | G4 !courtesy!=A4 |[Q:1/4=79] z2[Q:1/4=76] f4[Q:1/4=74] e2 | %54
w: * * num,|in ae-|ter- num,|in ae-|
[Q:1/4=70] d8 |[Q:1/4=68] !fermata!=B8 |] %56
w: ter-|num.|
V:2
 G4 G4 | A2 G2 G4 | G4 G4- | G2 G2 G2 G2 | B4 A2 (c2- | c2 =B2) c4 |[M:4/4] z8 | z2 cc c2 AF | %8
w: Ne re-|mi- ni- sca-|ris Do\-|* mi- ne de-|li- cta no\-|* * stra,||vel pa- ren- tum no-|
 (f3 e/d/ c2 B2- | B2 A2) B4 | z2 f3 f e2 | d2 c2 B4 | A2 AB c2 A2 | (G4 F4 | G2 F4 =E2) | %15
w: stro\- * * * *|* * rum:|ne- que vin-|di- cam su-|mas, de pec- ca- tis|no\- *||
 F2 de f2 e2 | d8 | !fermata!=B8 ||[M:3/4] G4 G2 | G4 F2 | G6 | e4 d2 |[M:3/4] c4 c2 | =B6 | z6 | %25
w: stris, de pec- ca- tis|no-|stris.|Par- ce|Do- mi-|ne,|par- ce|Do- mi-|ne,||
 d4 d2 | z4 z2 | g4 d2 | d4 d2 | B3 B A2 | G6 | G4 z2 | c4 c2 | z6 | f4 c2 | z6 | f4 e2 | %37
w: par- ce,||par- ce,|par- ce|po- pu- lo|tu-|o,|par- ce,||par- ce,||par- ce,|
 d3 d e2 ||[M:4/4] d4 d=Bcd | c2 =Bd ef e2 |[M:4/4] d2 e3 e d2 | c2 B2 A2 c2- | cd B2 B2 G2 | %43
w: po- pu- lo|tu- o, quem re- de-|mi- sti, quem re- de- mi-|sti, prae- ti- o-|sis- si- mo prae\-|* ti- o- sis- si-|
 G2 B3 B A2 | Bc d3 c B2- | B2 A2 B2 z B | ABGF c4 | FB d2 cdBc- | cB A2 G2 B2 | A4 G4- | %50
w: mo san- gui- ne|tu- * * * *|* * o, ne|i- ra- sca- ris no-|bis, ne i- ra- sca- ris no\-|* bis, no- bis, in|ae- ter\-|
 G4 G2 e2- | e2 d2 c4- | c4 c2 c2- | c2 (B2 AG A2- | A2 G4 ^F2) | !fermata!G8 |] %56
w: * num, in|* ae- ter\-|* num, in|* ae- ter\- * *||num.|
V:3
 D4 D4 | D2 D2 C4 | D4 E4- | E2 E2 D4- | D4 z2 C2 | F2 F2 (G2 _A2 |[M:4/4] GF F4 =E2) | F8 | %8
w: Ne re-|mi- ni- sca-|ris Do\-|* mi- ne|* de-|li- cta no\- *||stra,|
 cc c2 A2 F2 | F4 F4 | F4 F2 G2 | F2 F2 G4 | C2 FF G2 F(F- | F=E/D/ E2) F2 FD | =E2 F2 G2 C2 | %15
w: vel pa- ren- tum no-|tro- rum:|ne- que vin-|di- cam su-|mas, de pec- ca- tis no\-|* * * * stris, de pec-|ca- tis no- stris,|
 CC F4 G2 | (3(F2 E2 D2- D4) | !fermata!D8 ||[M:3/4] z2 C2 D2 | E4 C2 | D6 | G4 F2 |[M:3/4] G4 F2 | %23
w: de pec- ca- tis|no\- * * *|stris|Par- ce|Do- mi-|ne,|par- ce|Do- mi-|
 G6 | G6 | G6 | D6 | D6 | B4 A2 | G3 F E2 | D6 | =E6 | F6 | F6 | C6 | C6 | _A4 G2 | G3 G G2 || %38
w: ne,|par-|ce,|par-|ce,|par- ce|po- pu- lo|tu-|o,|par-|ce,|par-|ce,|par- ce|po- pu- lo|
[M:4/4] (^F G2 F) GG G>G | G2 G2 z4 |[M:4/4] z2 B3 B B2 | F2 F2 F2 A2- | AB G2 F2 E2 | D2 G3 F F2 | %44
w: tu\- * * o, quem re- de-|mi- sti,|prae- ti- o-|sis- si- mo, prae\-|* ti- o- sis- si-|mo san- gui- ne|
 F8- | F4 F2 z F | FFED C4 | D2 B2 AB G2 | ^F (G2 F) G4 | z8 | z4 (E3 F | G2) F2 (=E2 F2- | %52
w: tu\-|* o, ne|i- ra- sca- ris no-|bis, ne i- ra- sca-|ris no\- * bis,||in *|* ae- ter\- *|
 F2 =E2) F4- | F4 z2 CC | (FEDC D4) | !fermata!D8 |] %56
w: * * num,|* in ae-|ter\- * * * *|num.|
V:4
 B4 B4 | A2 =B2 c2 G2 | G8 | G4 G4 | z2 B2 c4 | d4 G2 c2- |[M:4/4][K:treble-8] c2 _A2 G4 | %7
w: Ne re-|mi- ni- sca- ris|Do-|mi- ne|de- li-|cta, de- li\-|* cta no-|
 F4 cc c2 | AF (f4 B2 | c4) B4 | d4 d2 B2 | B2 F2 B4 | c2 cd c2 c2 | c4 c4 | z2 AA c3 c | %15
w: stra, vel pa- ren-|tum no- stro\- *|* rum:|ne- que vin-|di- cam su-|mas, de pec- ca- tis|no- stris,|de pec- ca- tis|
 A2 F2 z2 GA | B2 B2 A4 | !fermata!G8 ||[M:3/4] c4 =B2 | c4 _A2 | G6 | z2 c2 d2 | %22
w: no- stris, de pec-|ca- tis no-|stris.|Par- ce|Do- mi-|ne,|par- ce|
[M:3/4][K:treble-8] e4 c2 | d6 | =B6 | =B6 | =B6 | =B6 | d4 d2 | G3 G G2 | G6 | G6 | A6 | A6 | A6 | %35
w: Do- mi-|ne,|par-|ce,|par-|ce,|par- ce|po- pu- lo|tu-|o,|par-|ce,|par-|
 A6 | c4 c2 | d3 G G2 ||[M:4/4] d4 dGc=B | c2 Gg g>g g2 |[M:4/4][K:treble-8] g2 g3 gff- | %41
w: ce,|par- ce|po- pu- lo|tu- o quem re- de-|mi- sti, quem re- de- mi-|sti, prae- ti- o- sis\-|
 f (e d2) c2 f2- | fd e2 B2 c2 | G4 B>B c2 | B4 A2 B2 | c4 BBBd | cd (B3 A/G/ A2) | B2 B2 fdec | %48
w: * si\- * mo, prae\-|* ti- o- sis- si-|mo san- gui- ne|tu\- * *|* o, ne i- ra-|sca- ris no\- * * *|bis, ne i- ra- sca- ris|
 d4 G4 | d4 G4 | d4 c2 c2 | =B4 c4- | c4 F4- | F4 c4- | c2 B2 A4 | !fermata!G8 |] %56
w: no- bis,|in ae-|ter- num, in|ae- ter\-|* num,|* in|* ae- ter-|num.|
V:5
 G,4 G,4 | ^F,2 G,2 C,4 | =B,,4 C,4- | C,2 C,2 G,4 | G,4 F,4 | D,4 C,4- |[M:4/4] C,8 | F,8 | %8
w: Ne re-|mi- ni- sca-|ris Do\-|* mi- ne|de- li-|cta no\-||stra,|
 z2 F,F, F,2 D,B,, | F,4 B,,4 | B,4 B,2 E,2 | B,2 A,2 G,4 | F,2 F,D, =E,2 F,2 | C,4 F,4 | z8 | %15
w: vel pa- ren- tum no-|stro- rum:|ne- que vin-|di- cam su-|mas, de pec- ca- tis|no- stris,||
 z2 B,,4 E,2 | B,,3 C, D,4 | !fermata!G,,8 ||[M:3/4] z6 | z6 | z6 | C4 =B,2 |[M:3/4] C4 _A,2 | %23
w: de pec-|ca- tis no-|stris.||||Par- ce|Do- mi-|
 G,6 | G,6 | G,6 | G,6 | G,6 | G,4 D,2 | E,3 B,, C,2 | G,6 | C,6 | F,6 | F,6 | F,6 | F,6 | %36
w: ne,|par-|ce,|par-|ce,|par- ce|po- pu- lo|tu-|o,|par-|ce,|par-|ce,|
 F,4 C,2 | G,3 G, C,2 ||[M:4/4] D,4 G,,2 z2 | z2 z G, C=B, C2 |[M:4/4] G,2 E,3 E, B,2 | %41
w: par- ce|po- pu- lo|tu- o,|quem re- de- mi-|sti prae- ti- o-|
 A,2 B,2 F,4 | z8 | z2 E,3 B,, F,2 | B,,3 C, D,3 C,/B,,/ | F,4 B,,2 z B,, | F,D,E,B,, F,4 | %47
w: sis- si- mo,||san- gui- ne|tu\- * * * *|* o, ne|i- ra- sca- ris no-|
 B,,4 z4 | z4 z2 G,2 | ^F,4 G,4- | G,4 C,4 | z8 | z8 | D,4 C,4 | D,8 | !fermata!G,,8 |] %56
w: bis,|in|ae- ter\-|* num,|||in ae-|ter-|num.|

